src/assets/tactic.svg

<svg xmlns="http://www.w3.org/2000/svg" viewBox="0 0 24.766 24.766" height="93.603" width="93.603"><defs><clipPath id="a" clipPathUnits="userSpaceOnUse"><path d="M0 841.89h595.276V0H0z"/></clipPath></defs><g clip-path="url(#a)" transform="matrix(.35278 0 0 -.35278 -92.488 272.354)"><path style="fill:#f48c2d;fill-opacity:1;fill-rule:nonzero;stroke:none" d="M0 0c-19.386 0-35.101-15.715-35.101-35.101 0-17.54 12.866-32.073 29.674-34.682A35.308 35.308 0 0 1 0-70.202c.103 0 .204.007.306.008a34.949 34.949 0 0 1 8.803 1.193c14.969 4.012 25.992 17.666 25.992 33.9C35.101-15.715 19.386 0 0 0" transform="translate(297.271 772.026)"/><path style="fill:#fff;fill-opacity:1;fill-rule:nonzero;stroke:none" d="m0 0-8.575 14.852L-17.151 0h5.709v-40.014c.723.138 1.444.292 2.154.482a29.84 29.84 0 0 1 3.579 1.234V0z" transform="translate(314.367 747.408)"/><path style="fill:#fff;fill-opacity:1;fill-rule:nonzero;stroke:none" d="M0 0v5.709l-14.851-8.575L0-11.442v5.709h8.042v-31.058c.257-.046.512-.097.771-.137a30.435 30.435 0 0 1 4.62-.36c.121.005.21.007.3.008l.042.002V0z" transform="translate(283.802 744.135)"/></g><g clip-path="url(#a)" transform="matrix(.35278 0 0 -.35278 -92.488 272.354)"><path d="M0 0c-19.386 0-35.101-15.715-35.101-35.101 0-17.54 12.866-32.073 29.674-34.682A35.308 35.308 0 0 1 0-70.202c.103 0 .204.007.306.008a34.949 34.949 0 0 1 8.803 1.193c14.969 4.012 25.992 17.666 25.992 33.9C35.101-15.715 19.386 0 0 0" style="fill:#f48c2d;fill-opacity:1;fill-rule:nonzero;stroke:none" transform="translate(297.271 772.026)"/><path d="m0 0-8.575 14.852L-17.151 0h5.709v-40.014c.723.138 1.444.292 2.154.482a29.84 29.84 0 0 1 3.579 1.234V0z" style="fill:#fff;fill-opacity:1;fill-rule:nonzero;stroke:none" transform="translate(314.367 747.408)"/><path d="M0 0v5.709l-14.851-8.575L0-11.442v5.709h8.042v-31.058c.257-.046.512-.097.771-.137a30.435 30.435 0 0 1 4.62-.36c.121.005.21.007.3.008l.042.002V0z" style="fill:#fff;fill-opacity:1;fill-rule:nonzero;stroke:none" transform="translate(283.802 744.135)"/></g></svg>

<?xml version="1.0" encoding="UTF-8" standalone="no"?>
<svg
   xmlns:dc="http://purl.org/dc/elements/1.1/"
   xmlns:cc="http://creativecommons.org/ns#"
   xmlns:rdf="http://www.w3.org/1999/02/22-rdf-syntax-ns#"
   xmlns:svg="http://www.w3.org/2000/svg"
   xmlns="http://www.w3.org/2000/svg"
   id="svg6165"
   version="1.1"
   viewBox="0 0 24.765705 24.765705"
   height="24.765705mm"
   width="24.765705mm">
  <defs
     id="defs6159">
    <clipPath
       id="clipPath896-0"
       clipPathUnits="userSpaceOnUse">
      <path
         id="path894-3"
         d="M 0,841.89 H 595.276 V 0 H 0 Z" />
    </clipPath>
  </defs>
  <metadata
     id="metadata6162">
    <rdf:RDF>
      <cc:Work
         rdf:about="">
        <dc:format>image/svg+xml</dc:format>
        <dc:type
           rdf:resource="http://purl.org/dc/dcmitype/StillImage" />
        <dc:title></dc:title>
      </cc:Work>
    </rdf:RDF>
  </metadata>
  <g
     transform="translate(-287.3494,-159.885)"
     id="layer1">
    <g
       id="g890-2"
       transform="matrix(0.35277777,0,0,-0.35277777,194.86165,432.23861)">
      <g
         clip-path="url(#clipPath896-0)"
         id="g892-1">
        <g
           transform="translate(297.271,772.026)"
           id="g898-5">
          <path
             id="path900-3"
             style="fill:#f48c2d;fill-opacity:1;fill-rule:nonzero;stroke:none"
             d="M 0,0 C -19.386,0 -35.101,-15.715 -35.101,-35.101 -35.101,-52.641 -22.235,-67.174 -5.427,-69.783 -3.658,-70.058 -1.846,-70.202 0,-70.202 0.103,-70.202 0.204,-70.195 0.306,-70.194 1.34,-70.186 2.365,-70.134 3.375,-70.037 5.338,-69.85 7.253,-69.499 9.109,-69.001 24.078,-64.989 35.101,-51.335 35.101,-35.101 35.101,-15.715 19.386,0 0,0" />
        </g>
        <g
           transform="translate(314.3672,747.4083)"
           id="g902-3">
          <path
             id="path904-8"
             style="fill:#ffffff;fill-opacity:1;fill-rule:nonzero;stroke:none"
             d="M 0,0 -8.575,14.852 -17.151,0 H -11.442 V -40.014 C -10.719,-39.876 -9.998,-39.722 -9.288,-39.532 -8.055,-39.201 -6.868,-38.773 -5.709,-38.298 V 0 Z" />
        </g>
        <g
           transform="translate(283.8018,744.1349)"
           id="g906-2">
          <path
             id="path908-8"
             style="fill:#ffffff;fill-opacity:1;fill-rule:nonzero;stroke:none"
             d="M 0,0 V 5.709 L -14.851,-2.866 0,-11.442 V -5.733 H 8.042 V -36.791 C 8.299,-36.837 8.554,-36.888 8.813,-36.928 10.338,-37.165 11.892,-37.286 13.433,-37.288 13.554,-37.283 13.643,-37.281 13.733,-37.28 13.747,-37.28 13.761,-37.278 13.775,-37.278 V 0 Z" />
        </g>
      </g>
      <g
         id="g5808-5"
         clip-path="url(#clipPath896-0)">
        <g
           id="g5798-8"
           transform="translate(297.271,772.026)">
          <path
             d="M 0,0 C -19.386,0 -35.101,-15.715 -35.101,-35.101 -35.101,-52.641 -22.235,-67.174 -5.427,-69.783 -3.658,-70.058 -1.846,-70.202 0,-70.202 0.103,-70.202 0.204,-70.195 0.306,-70.194 1.34,-70.186 2.365,-70.134 3.375,-70.037 5.338,-69.85 7.253,-69.499 9.109,-69.001 24.078,-64.989 35.101,-51.335 35.101,-35.101 35.101,-15.715 19.386,0 0,0"
             style="fill:#f48c2d;fill-opacity:1;fill-rule:nonzero;stroke:none"
             id="path5796-0" />
        </g>
        <g
           id="g5802-86"
           transform="translate(314.3672,747.4083)">
          <path
             d="M 0,0 -8.575,14.852 -17.151,0 H -11.442 V -40.014 C -10.719,-39.876 -9.998,-39.722 -9.288,-39.532 -8.055,-39.201 -6.868,-38.773 -5.709,-38.298 V 0 Z"
             style="fill:#ffffff;fill-opacity:1;fill-rule:nonzero;stroke:none"
             id="path5800-9" />
        </g>
        <g
           id="g5806-33"
           transform="translate(283.8018,744.1349)">
          <path
             d="M 0,0 V 5.709 L -14.851,-2.866 0,-11.442 V -5.733 H 8.042 V -36.791 C 8.299,-36.837 8.554,-36.888 8.813,-36.928 10.338,-37.165 11.892,-37.286 13.433,-37.288 13.554,-37.283 13.643,-37.281 13.733,-37.28 13.747,-37.28 13.761,-37.278 13.775,-37.278 V 0 Z"
             style="fill:#ffffff;fill-opacity:1;fill-rule:nonzero;stroke:none"
             id="path5804-7" />
        </g>
      </g>
    </g>
  </g>
</svg>
